assets/babylonjs/original.svg

<svg viewBox="0 0 128 128" xmlns="http://www.w3.org/2000/svg"><path d="m119.427 32.001-17.35-10.015-16.687 9.634 17.346 10.016zm-94.164 9.636 55.428-32.002-16.691-9.635-55.427 32.001zm21.391 32.381 17.346 10.015 17.35-10.015-17.35-10.016z" fill="#e0684b"/><path d="m46.654 74.018 17.346-10.016 17.35 10.016v-20.036l-17.35-10.015-17.346 10.015z" fill="#bb464b"/><path d="m81.35 74.018-17.35 10.015v24.696l38.737-22.366v-44.726l-21.387 12.345z" fill="#e0ded8"/><path d="m46.654 74.018 17.346 10.015v24.696l-38.737-22.366v-44.726l21.391 12.345z" fill="#d5d2ca"/><path d="m81.35 53.982-17.35-10.015-17.346 10.015-21.39-12.345 55.426-32.002 21.385 12.35-16.685 9.636 17.346 10.016z" fill="#fff"/><path d="m25.263 86.363v-44.726l-16.69-9.637v64l55.427 32 55.427-32.001v-63.999l-16.69 9.636v44.726l-38.737 22.368z" fill="#bb464b"/></svg>

<svg xmlns="http://www.w3.org/2000/svg" viewBox="0 0 128 128"><path fill="#e0684b" d="m119.427 32.001-17.35-10.015L85.39 31.62l17.346 10.016zm-94.164 9.636L80.691 9.635 64 0 8.573 32.001zm21.391 32.381L64 84.033l17.35-10.015L64 64.002z"/><path fill="#bb464b" d="M46.654 74.018 64 64.002l17.35 10.016V53.982L64 43.967 46.654 53.982z"/><path fill="#e0ded8" d="M81.35 74.018 64 84.033v24.696l38.737-22.366V41.637L81.35 53.982z"/><path fill="#d5d2ca" d="M46.654 74.018 64 84.033v24.696L25.263 86.363V41.637l21.391 12.345z"/><path fill="#fff" d="M81.35 53.982 64 43.967 46.654 53.982l-21.39-12.345L80.69 9.635l21.385 12.35-16.685 9.636 17.346 10.016z"/><path fill="#bb464b" d="M25.263 86.363V41.637L8.573 32v64L64 128l55.427-32.001V32l-16.69 9.636v44.726L64 108.73z"/></svg>
